svgs/solid/game-board.svg

<svg xmlns="http://www.w3.org/2000/svg" viewBox="0 0 448 512"><!--! Font Awesome Pro 6.6.0 by @fontawesome - https://fontawesome.com License - https://fontawesome.com/license (Commercial License) Copyright 2024 Fonticons, Inc. --><path d="M0 96C0 60.7 28.7 32 64 32H384c35.3 0 64 28.7 64 64V416c0 35.3-28.7 64-64 64H64c-35.3 0-64-28.7-64-64V96zm144 0v80h80V96H144zm0 160V176H64v80h80zm80 0H144v80H64v80h80V336h80v80h80V336h80V256H304V176h80V96H304v80H224v80zm0 0h80v80H224V256z"/></svg>

<svg xmlns="http://www.w3.org/2000/svg" viewBox="0 0 448 512"><!--! Font Awesome Pro 7.1.0 by @fontawesome - https://fontawesome.com License - https://fontawesome.com/license (Commercial License) Copyright 2025 Fonticons, Inc. --><path fill="currentColor" d="M0 96C0 60.7 28.7 32 64 32l320 0c35.3 0 64 28.7 64 64l0 320c0 35.3-28.7 64-64 64L64 480c-35.3 0-64-28.7-64-64L0 96zm144 0l0 80 80 0 0-80-80 0zm0 160l0-80-80 0 0 80 80 0zm80 0l-80 0 0 80-80 0 0 80 80 0 0-80 80 0 0 80 80 0 0-80 80 0 0-80-80 0 0-80 80 0 0-80-80 0 0 80-80 0 0 80zm0 0l80 0 0 80-80 0 0-80z"/></svg>
